Numix-Light/16/status/indicator-keyboard-De-8.svg

<?xml version="1.0" encoding="UTF-8" standalone="no"?>
<svg
   xmlns:dc="http://purl.org/dc/elements/1.1/"
   xmlns:cc="http://creativecommons.org/ns#"
   xmlns:rdf="http://www.w3.org/1999/02/22-rdf-syntax-ns#"
   xmlns:svg="http://www.w3.org/2000/svg"
   xmlns="http://www.w3.org/2000/svg"
   xmlns:sodipodi="http://sodipodi.sourceforge.net/DTD/sodipodi-0.dtd"
   xmlns:inkscape="http://www.inkscape.org/namespaces/inkscape"
   viewBox="0 0 16 16"
   id="svg2"
   version="1.1"
   inkscape:version="0.91 r13725"
   sodipodi:docname="indicator-keyboard-De-8.svg">
  <metadata
     id="metadata14">
    <rdf:RDF>
      <cc:Work
         rdf:about="">
        <dc:format>image/svg+xml</dc:format>
        <dc:type
           rdf:resource="http://purl.org/dc/dcmitype/StillImage" />
      </cc:Work>
    </rdf:RDF>
  </metadata>
  <defs
     id="defs12" />
  <sodipodi:namedview
     pagecolor="#ffffff"
     bordercolor="#666666"
     borderopacity="1"
     objecttolerance="10"
     gridtolerance="10"
     guidetolerance="10"
     inkscape:pageopacity="0"
     inkscape:pageshadow="2"
     inkscape:window-width="640"
     inkscape:window-height="480"
     id="namedview10"
     showgrid="false"
     inkscape:zoom="14.75"
     inkscape:cx="8"
     inkscape:cy="8"
     inkscape:window-x="65"
     inkscape:window-y="24"
     inkscape:window-maximized="0"
     inkscape:current-layer="svg2" />
  <path
     style="fill:#353535;fill-opacity:1"
     d="M 1.5996094 0 C 0.71320937 2.9605947e-16 0 0.71320937 0 1.5996094 L 0 14.400391 C 2.9605947e-16 15.286791 0.71320937 16 1.5996094 16 L 14.400391 16 C 15.286791 16 16 15.286791 16 14.400391 L 16 1.5996094 C 16 0.71320937 15.286791 0 14.400391 0 L 1.5996094 0 z M 2.84375 4.8046875 C 3.34775 4.8046875 3.8104688 4.8719062 4.2304688 5.0039062 C 4.6504688 5.1359063 5.0105469 5.3336562 5.3105469 5.5976562 C 5.6165469 5.8616562 5.8534844 6.1918906 6.0214844 6.5878906 C 6.1894844 6.9838906 6.2734375 7.4446562 6.2734375 7.9726562 C 6.2734375 8.5066563 6.1894844 8.9711875 6.0214844 9.3671875 C 5.8534844 9.7631875 5.6165469 10.093422 5.3105469 10.357422 C 5.0105469 10.621422 4.6504687 10.819172 4.2304688 10.951172 C 3.8104688 11.083172 3.34775 11.150391 2.84375 11.150391 C 2.59175 11.150391 2.3287344 11.135469 2.0527344 11.105469 C 1.7767344 11.081469 1.5342188 11.042281 1.3242188 10.988281 L 1.3242188 4.9765625 C 1.5342188 4.9165625 1.7767344 4.8736094 2.0527344 4.8496094 C 2.3287344 4.8196094 2.59175 4.8046875 2.84375 4.8046875 z M 2.9160156 5.3359375 C 2.5920156 5.3359375 2.3550781 5.3452812 2.2050781 5.3632812 C 2.0610781 5.3812813 1.9715469 5.3924375 1.9355469 5.3984375 L 1.9355469 10.556641 C 1.9715469 10.562641 2.0610781 10.573797 2.2050781 10.591797 C 2.3550781 10.609797 2.5920156 10.619141 2.9160156 10.619141 C 3.3660156 10.619141 3.7597031 10.559453 4.0957031 10.439453 C 4.4317031 10.313453 4.7134062 10.136203 4.9414062 9.9082031 C 5.1694062 9.6802031 5.3410781 9.4040781 5.4550781 9.0800781 C 5.5690781 8.7500781 5.625 8.3806562 5.625 7.9726562 C 5.625 7.5646563 5.5690781 7.199 5.4550781 6.875 C 5.3410781 6.551 5.1694063 6.274875 4.9414062 6.046875 C 4.7134063 5.818875 4.4317031 5.6453906 4.0957031 5.5253906 C 3.7597031 5.3993906 3.3660156 5.3359375 2.9160156 5.3359375 z M 9.3535156 6.3359375 C 9.9235156 6.3359375 10.374938 6.5205781 10.710938 6.8925781 C 11.052938 7.2645781 11.224609 7.8373281 11.224609 8.6113281 C 11.224609 8.6593281 11.222797 8.7078594 11.216797 8.7558594 C 11.216797 8.8038594 11.213031 8.848625 11.207031 8.890625 L 7.9394531 8.890625 C 7.9574531 9.460625 8.0992812 9.8990779 8.3632812 10.205078 C 8.6272812 10.511078 9.0470469 10.664062 9.6230469 10.664062 C 9.9410469 10.664062 10.192906 10.634219 10.378906 10.574219 C 10.564906 10.514219 10.699203 10.463875 10.783203 10.421875 L 10.892578 10.925781 C 10.808578 10.973781 10.648062 11.029703 10.414062 11.095703 C 10.186063 11.161703 9.9174687 11.195312 9.6054688 11.195312 C 9.1974688 11.195312 8.8485469 11.135625 8.5605469 11.015625 C 8.2725469 10.895625 8.0356094 10.727719 7.8496094 10.511719 C 7.6636094 10.295719 7.5293125 10.040094 7.4453125 9.7460938 C 7.3613125 9.4460938 7.3183594 9.119625 7.3183594 8.765625 C 7.3183594 8.357625 7.3762344 8.003125 7.4902344 7.703125 C 7.6102344 7.397125 7.7632188 7.1415 7.9492188 6.9375 C 8.1412187 6.7335 8.3576563 6.5842812 8.5976562 6.4882812 C 8.8436563 6.3862812 9.0955156 6.3359375 9.3535156 6.3359375 z M 9.3613281 6.8574219 C 9.1513281 6.8574219 8.9629219 6.8984219 8.7949219 6.9824219 C 8.6329219 7.0664219 8.4892812 7.1802188 8.3632812 7.3242188 C 8.2432813 7.4622187 8.1462187 7.6245469 8.0742188 7.8105469 C 8.0082187 7.9965469 7.9690312 8.1924844 7.9570312 8.3964844 L 10.621094 8.3964844 C 10.609094 7.9104844 10.495297 7.5317188 10.279297 7.2617188 C 10.063297 6.9917187 9.7573281 6.8574219 9.3613281 6.8574219 z M 13.412109 8.7539062 C 13.614909 8.7539062 13.791253 8.7852563 13.939453 8.8476562 C 14.087653 8.9061562 14.209134 8.9845313 14.302734 9.0820312 C 14.400234 9.1795312 14.470772 9.2912156 14.513672 9.4160156 C 14.560472 9.5408156 14.583984 9.6681812 14.583984 9.8007812 C 14.583984 9.9294812 14.564391 10.049003 14.525391 10.158203 C 14.486391 10.263503 14.435447 10.361472 14.373047 10.451172 C 14.310647 10.536972 14.240109 10.613388 14.162109 10.679688 C 14.084109 10.745988 14.007694 10.800856 13.933594 10.847656 C 14.206594 10.964656 14.398612 11.111609 14.507812 11.287109 C 14.620912 11.462609 14.675781 11.64875 14.675781 11.84375 C 14.675781 12.01145 14.646384 12.164288 14.583984 12.304688 C 14.525484 12.445088 14.441231 12.566569 14.332031 12.667969 C 14.222831 12.765469 14.089594 12.841884 13.933594 12.896484 C 13.777594 12.954984 13.603209 12.984375 13.412109 12.984375 C 13.221009 12.984375 13.048578 12.956944 12.892578 12.902344 C 12.740478 12.847744 12.607241 12.771328 12.494141 12.673828 C 12.384941 12.572428 12.298728 12.454866 12.236328 12.322266 C 12.177828 12.185766 12.150391 12.038806 12.150391 11.878906 C 12.150391 11.742406 12.168031 11.618966 12.207031 11.509766 C 12.246031 11.396666 12.296975 11.296737 12.359375 11.210938 C 12.425675 11.121237 12.500131 11.042863 12.582031 10.976562 C 12.667831 10.906363 12.757962 10.845622 12.851562 10.794922 C 12.613663 10.677922 12.451034 10.540759 12.365234 10.380859 C 12.279434 10.220959 12.236328 10.046575 12.236328 9.859375 C 12.236328 9.691675 12.265719 9.5407968 12.324219 9.4042969 C 12.382719 9.2677969 12.463053 9.1521937 12.564453 9.0585938 C 12.669753 8.9610938 12.795153 8.8866375 12.939453 8.8359375 C 13.083753 8.7813375 13.240509 8.7539062 13.412109 8.7539062 z M 13.412109 9.0820312 C 13.283409 9.0820312 13.171719 9.101625 13.074219 9.140625 C 12.976719 9.179625 12.894425 9.2344875 12.828125 9.3046875 C 12.765725 9.3709875 12.716741 9.4493625 12.681641 9.5390625 C 12.650441 9.6287624 12.634766 9.7208594 12.634766 9.8183594 C 12.634766 9.9275594 12.646522 10.027487 12.669922 10.117188 C 12.697222 10.206888 12.746206 10.289181 12.816406 10.363281 C 12.886606 10.433481 12.984575 10.5001 13.109375 10.5625 C 13.234175 10.621 13.396809 10.677822 13.599609 10.732422 C 13.779009 10.631022 13.922044 10.505622 14.027344 10.357422 C 14.132644 10.209222 14.185547 10.023081 14.185547 9.8007812 C 14.185547 9.7110812 14.169872 9.6248624 14.138672 9.5390625 C 14.111372 9.4532625 14.066306 9.3768469 14.003906 9.3105469 C 13.945406 9.2403469 13.867031 9.1854844 13.769531 9.1464844 C 13.672031 9.1035844 13.552509 9.0820312 13.412109 9.0820312 z M 13.179688 10.929688 C 12.980788 11.023287 12.825997 11.150647 12.716797 11.310547 C 12.607597 11.466547 12.552734 11.656606 12.552734 11.878906 C 12.552734 11.988106 12.570369 12.088041 12.605469 12.181641 C 12.640569 12.275241 12.693472 12.357534 12.763672 12.427734 C 12.837772 12.497934 12.927903 12.554756 13.033203 12.597656 C 13.142403 12.636656 13.267809 12.65625 13.412109 12.65625 C 13.556409 12.65625 13.681809 12.636656 13.787109 12.597656 C 13.896309 12.554756 13.986441 12.497934 14.056641 12.427734 C 14.130741 12.357534 14.185603 12.275241 14.220703 12.181641 C 14.255803 12.088041 14.273438 11.988106 14.273438 11.878906 C 14.273438 11.711206 14.240128 11.57405 14.173828 11.46875 C 14.111428 11.36345 14.027175 11.277238 13.921875 11.210938 C 13.820475 11.144638 13.702912 11.091734 13.570312 11.052734 C 13.441613 11.013734 13.312287 10.972587 13.179688 10.929688 z "
     id="path4" />
</svg>

<svg xmlns="http://www.w3.org/2000/svg" viewBox="0 0 16 16">
 <path d="m 1.6 0 c -0.886 0 -1.6 0.713 -1.6 1.6 l 0 12.801 c 0 0.886 0.713 1.6 1.6 1.6 l 12.801 0 c 0.886 0 1.6 -0.713 1.6 -1.6 l 0 -12.801 c 0 -0.886 -0.713 -1.6 -1.6 -1.6 l -12.801 0 z m 1.244 4.805 c 0.504 0 0.967 0.067 1.387 0.199 c 0.42 0.132 0.78 0.33 1.08 0.594 c 0.306 0.264 0.543 0.594 0.711 0.99 c 0.168 0.396 0.252 0.857 0.252 1.385 c 0 0.534 -0.084 0.999 -0.252 1.395 c -0.168 0.396 -0.405 0.726 -0.711 0.99 c -0.3 0.264 -0.66 0.462 -1.08 0.594 c -0.42 0.132 -0.883 0.199 -1.387 0.199 c -0.252 0 -0.515 -0.015 -0.791 -0.045 c -0.276 -0.024 -0.519 -0.063 -0.729 -0.117 l 0 -6.01 c 0.21 -0.06 0.453 -0.103 0.729 -0.127 c 0.276 -0.03 0.539 -0.045 0.791 -0.045 z m 0.072 0.531 c -0.324 0 -0.561 0.009 -0.711 0.027 c -0.144 0.018 -0.234 0.029 -0.27 0.035 l 0 5.158 c 0.036 0.006 0.126 0.017 0.27 0.035 c 0.15 0.018 0.387 0.027 0.711 0.027 c 0.45 0 0.844 -0.06 1.18 -0.18 c 0.336 -0.126 0.618 -0.303 0.846 -0.531 c 0.228 -0.228 0.4 -0.504 0.514 -0.828 c 0.114 -0.33 0.17 -0.699 0.17 -1.107 c 0 -0.408 -0.056 -0.774 -0.17 -1.098 c -0.114 -0.324 -0.286 -0.6 -0.514 -0.828 c -0.228 -0.228 -0.51 -0.401 -0.846 -0.521 c -0.336 -0.126 -0.73 -0.189 -1.18 -0.189 z m 6.438 1 c 0.57 0 1.021 0.185 1.357 0.557 c 0.342 0.372 0.514 0.945 0.514 1.719 c 0 0.048 -0.002 0.097 -0.008 0.145 c 0 0.048 -0.004 0.093 -0.01 0.135 l -3.268 0 c 0.018 0.57 0.16 1.01 0.424 1.314 c 0.264 0.306 0.684 0.459 1.26 0.459 c 0.318 0 0.57 -0.03 0.756 -0.09 c 0.186 -0.06 0.32 -0.11 0.404 -0.152 l 0.109 0.504 c -0.084 0.048 -0.245 0.104 -0.479 0.17 c -0.228 0.066 -0.497 0.1 -0.809 0.1 c -0.408 0 -0.757 -0.06 -1.045 -0.18 c -0.288 -0.12 -0.525 -0.288 -0.711 -0.504 c -0.186 -0.216 -0.32 -0.472 -0.404 -0.766 c -0.084 -0.3 -0.127 -0.626 -0.127 -0.98 c 0 -0.408 0.058 -0.762 0.172 -1.063 c 0.12 -0.306 0.273 -0.562 0.459 -0.766 c 0.192 -0.204 0.408 -0.353 0.648 -0.449 c 0.246 -0.102 0.498 -0.152 0.756 -0.152 z m 0.008 0.521 c -0.21 0 -0.398 0.041 -0.566 0.125 c -0.162 0.084 -0.306 0.198 -0.432 0.342 c -0.12 0.138 -0.217 0.3 -0.289 0.486 c -0.066 0.186 -0.105 0.382 -0.117 0.586 l 2.664 0 c -0.012 -0.486 -0.126 -0.865 -0.342 -1.135 c -0.216 -0.27 -0.522 -0.404 -0.918 -0.404 z m 4.051 1.896 c 0.203 0 0.379 0.031 0.527 0.094 c 0.148 0.059 0.27 0.137 0.363 0.234 c 0.098 0.098 0.168 0.209 0.211 0.334 c 0.047 0.125 0.07 0.252 0.07 0.385 c 0 0.129 -0.02 0.248 -0.059 0.357 c -0.039 0.105 -0.09 0.203 -0.152 0.293 c -0.062 0.086 -0.133 0.162 -0.211 0.229 c -0.078 0.066 -0.154 0.121 -0.229 0.168 c 0.273 0.117 0.465 0.264 0.574 0.439 c 0.113 0.176 0.168 0.362 0.168 0.557 c 0 0.168 -0.029 0.321 -0.092 0.461 c -0.058 0.14 -0.143 0.262 -0.252 0.363 c -0.109 0.098 -0.242 0.174 -0.398 0.229 c -0.156 0.059 -0.33 0.088 -0.521 0.088 c -0.191 0 -0.364 -0.027 -0.52 -0.082 c -0.152 -0.055 -0.285 -0.131 -0.398 -0.229 c -0.109 -0.101 -0.195 -0.219 -0.258 -0.352 c -0.059 -0.137 -0.086 -0.283 -0.086 -0.443 c 0 -0.136 0.018 -0.26 0.057 -0.369 c 0.039 -0.113 0.09 -0.213 0.152 -0.299 c 0.066 -0.09 0.141 -0.168 0.223 -0.234 c 0.086 -0.07 0.176 -0.131 0.27 -0.182 c -0.238 -0.117 -0.401 -0.254 -0.486 -0.414 c -0.086 -0.16 -0.129 -0.334 -0.129 -0.521 c 0 -0.168 0.029 -0.319 0.088 -0.455 c 0.059 -0.136 0.139 -0.252 0.24 -0.346 c 0.105 -0.098 0.231 -0.172 0.375 -0.223 c 0.144 -0.055 0.301 -0.082 0.473 -0.082 z m 0 0.328 c -0.129 0 -0.24 0.02 -0.338 0.059 c -0.098 0.039 -0.18 0.094 -0.246 0.164 c -0.062 0.066 -0.111 0.145 -0.146 0.234 c -0.031 0.09 -0.047 0.182 -0.047 0.279 c 0 0.109 0.012 0.209 0.035 0.299 c 0.027 0.09 0.076 0.172 0.146 0.246 c 0.07 0.07 0.168 0.137 0.293 0.199 c 0.125 0.059 0.287 0.115 0.49 0.17 c 0.179 -0.101 0.322 -0.227 0.428 -0.375 c 0.105 -0.148 0.158 -0.334 0.158 -0.557 c 0 -0.09 -0.016 -0.176 -0.047 -0.262 c -0.027 -0.086 -0.072 -0.162 -0.135 -0.229 c -0.059 -0.07 -0.137 -0.125 -0.234 -0.164 c -0.098 -0.043 -0.217 -0.064 -0.357 -0.064 z m -0.232 1.848 c -0.199 0.094 -0.354 0.221 -0.463 0.381 c -0.109 0.156 -0.164 0.346 -0.164 0.568 c 0 0.109 0.018 0.209 0.053 0.303 c 0.035 0.094 0.088 0.176 0.158 0.246 c 0.074 0.07 0.164 0.127 0.27 0.17 c 0.109 0.039 0.235 0.059 0.379 0.059 c 0.144 0 0.27 -0.02 0.375 -0.059 c 0.109 -0.043 0.199 -0.1 0.27 -0.17 c 0.074 -0.07 0.129 -0.152 0.164 -0.246 c 0.035 -0.094 0.053 -0.194 0.053 -0.303 c 0 -0.168 -0.033 -0.305 -0.1 -0.41 c -0.062 -0.105 -0.147 -0.192 -0.252 -0.258 c -0.101 -0.066 -0.219 -0.119 -0.352 -0.158 c -0.129 -0.039 -0.258 -0.08 -0.391 -0.123 z" style="fill:#353535;fill-opacity:1"/>
</svg>
